X:1
T: Mill of Tynett
C:Alexander Walker
R:Strathspey
Q: 128
K:E
M:4/4
L:1/16
|:gf|ec3 B3G F4 E3c|e3c g3e fF3 F3f|ec3 B3G F4 E3c|e3g f3a ge3 e3g|
ec3 B3G F4 E3c|e3g f3e fc3 c3f|e3g c3e B3c e3a|ge3 b3f ge3 e2g2|
b3g e3B c3e B3G|A3c G3B Ff3 f3g|b3g e3B ce3 B3G|((3A2B2c2) B3c e4-e3g|
b3g e3B c3e B3G|A3c G3B Ff3 f2ga|b3g a3f g3e f3d|e3c B3G EEE2 E2:|
